src/svg/radio.svg

<?xml version="1.0" encoding="UTF-8" standalone="no"?>
<!-- Created with Inkscape (http://www.inkscape.org/) -->

<svg
   width="160"
   height="160"
   viewBox="0 0 160 160"
   version="1.1"
   id="svg5"
   inkscape:version="1.1.2 (0a00cf5339, 2022-02-04)"
   sodipodi:docname="radio.svg"
   xmlns:inkscape="http://www.inkscape.org/namespaces/inkscape"
   xmlns:sodipodi="http://sodipodi.sourceforge.net/DTD/sodipodi-0.dtd"
   xmlns="http://www.w3.org/2000/svg"
   xmlns:svg="http://www.w3.org/2000/svg">
  <sodipodi:namedview
     id="namedview7"
     pagecolor="#ffffff"
     bordercolor="#666666"
     borderopacity="1.0"
     inkscape:pageshadow="2"
     inkscape:pageopacity="0.0"
     inkscape:pagecheckerboard="0"
     inkscape:document-units="px"
     showgrid="true"
     units="px"
     width="160px"
     showguides="false"
     inkscape:zoom="2.8284271"
     inkscape:cx="144.07301"
     inkscape:cy="80.963727"
     inkscape:window-width="1920"
     inkscape:window-height="1051"
     inkscape:window-x="1920"
     inkscape:window-y="0"
     inkscape:window-maximized="1"
     inkscape:current-layer="layer1"
     inkscape:snap-bbox="true">
    <inkscape:grid
       type="xygrid"
       id="grid3564"
       spacingx="2.6458333"
       spacingy="2.6458333" />
  </sodipodi:namedview>
  <defs
     id="defs2" />
  <g
     inkscape:label="Layer 1"
     inkscape:groupmode="layer"
     id="layer1">
    <path
       id="path1030-3"
       style="opacity:0.2;fill:#000000;fill-opacity:1;stroke-width:2.34476"
       d="M 80,10 A 70.000004,70.000002 0 0 0 10,79.999998 70.000004,70.000002 0 0 0 80,150 70.000004,70.000002 0 0 0 150,79.999998 70.000004,70.000002 0 0 0 80,10 Z m 0,9.999999 A 60.000001,59.999999 0 0 1 140,79.999998 60.000001,59.999999 0 0 1 80,140 60.000001,59.999999 0 0 1 19.999999,79.999998 60.000001,59.999999 0 0 1 80,19.999999 Z" />
    <path
       id="rect3880"
       style="opacity:1;fill:#000000;fill-opacity:1;stroke-width:2.66457"
       d="M 34.03806,79.999998 69.393398,115.35534 125.96195,58.786795 111.8198,44.644661 69.393398,87.071067 48.180194,65.857864 Z" />
  </g>
</svg>

<svg xmlns="http://www.w3.org/2000/svg" viewBox="0 0 160 160"><path d="M80 10a70 70 0 0 0-70 70 70 70 0 0 0 70 70 70 70 0 0 0 70-70 70 70 0 0 0-70-70Zm0 10a60 60 0 0 1 60 60 60 60 0 0 1-60 60 60 60 0 0 1-60-60 60 60 0 0 1 60-60Z" style="opacity:.2;fill:#000;fill-opacity:1;stroke-width:2.34476"/><path d="m34.038 80 35.355 35.355 56.569-56.568-14.142-14.142L69.393 87.07 48.18 65.858Z" style="opacity:1;fill:#000;fill-opacity:1;stroke-width:2.66457"/></svg>
